svg/blobs-icons/no-decorations/compass.svg

<svg xmlns="http://www.w3.org/2000/svg" xmlns:xlink="http://www.w3.org/1999/xlink" preserveAspectRatio="xMidYMid" width="218" height="218" viewBox="0 0 218 218"><defs><style>.cls-3{fill:#db2c3f}.cls-4{fill:#ff3a2f}.cls-5{fill:#fff}.cls-6{fill:#010101;opacity:.35}.cls-8{fill:#142a3b}.cls-9{fill:#0cb04a}</style></defs><g id="group-159svg"><path d="M100.068 117.341s61.38 36.648 61.38 36.648-36.646-61.381-36.646-61.381S125.02 92.39 125.02 92.39 124.479 92.067 124.479 92.067 124.156 91.527 124.156 91.527 123.939 91.746 123.939 91.746 62.56 55.098 62.56 55.098s36.646 61.38 36.646 61.38S98.988 116.696 98.988 116.696 99.528 117.018 99.528 117.018 99.851 117.559 99.851 117.559 100.068 117.341 100.068 117.341z" id="path-1" class="cls-3" fill-rule="evenodd"/><path d="M216.859 108.43c0 59.89-48.549 108.439-108.437 108.439C48.534 216.869-.015 168.32-.015 108.43-.015 48.54 48.534-.01 108.422-.01S216.859 48.54 216.859 108.43z" id="path-2" class="cls-4" fill-rule="evenodd"/><path d="M186.372 108.43c0 43.052-34.899 77.951-77.95 77.951-43.051.0-77.95-34.899-77.95-77.951.0-43.052 34.899-77.952 77.95-77.952s77.95 34.9 77.95 77.952z" id="path-3" class="cls-5" fill-rule="evenodd"/><path d="M108.422 30.478c-13.281.0-25.775 3.34-36.72 9.198C71.691 39.682 71.68 39.687 71.669 39.694 80.465 36.254 90.039 34.364 100.055 34.364c43.05.0 77.949 34.898 77.949 77.951.0 28.033-14.801 52.608-37.013 66.343C143.605 177.636 146.122 176.432 148.589 175.144c22.612-13.647 37.783-38.377 37.783-66.715.0-43.05-34.899-77.951-77.95-77.951z" id="path-4" class="cls-6" fill-rule="evenodd"/><path d="M55.642 56.499S163.734 164.594 163.734 164.594s-32.198-77.046-32.198-77.046S55.642 56.499 55.642 56.499z" id="path-5" class="cls-6" fill-rule="evenodd"/><path d="M95.407 120.583s62.459 37.291 62.459 37.291-37.291-62.46-37.291-62.46-25.168 25.169-25.168 25.169z" id="path-6" class="cls-8" fill-rule="evenodd"/><path d="M96.269 121.447S58.978 58.985 58.978 58.985s62.46 37.292 62.46 37.292-25.169 25.17-25.169 25.17z" id="path-7" class="cls-9" fill-rule="evenodd"/></g></svg>

<svg xmlns="http://www.w3.org/2000/svg" xmlns:xlink="http://www.w3.org/1999/xlink" preserveAspectRatio="xMidYMid" width="218" height="218" viewBox="0 0 218 218">
  <defs>
    <style>

      .cls-3 {
        fill: #db2c3f;
      }

      .cls-4 {
        fill: #ff3a2f;
      }

      .cls-5 {
        fill: #ffffff;
      }

      .cls-6 {
        fill: #010101;
        opacity: 0.35;
      }

      .cls-8 {
        fill: #142a3b;
      }

      .cls-9 {
        fill: #0cb04a;
      }
    </style>
  </defs>
  <g id="group-159svg">
    <path d="M100.068,117.341 C100.068,117.341 161.448,153.989 161.448,153.989 C161.448,153.989 124.802,92.608 124.802,92.608 C124.802,92.608 125.020,92.390 125.020,92.390 C125.020,92.390 124.479,92.067 124.479,92.067 C124.479,92.067 124.156,91.527 124.156,91.527 C124.156,91.527 123.939,91.746 123.939,91.746 C123.939,91.746 62.560,55.098 62.560,55.098 C62.560,55.098 99.206,116.478 99.206,116.478 C99.206,116.478 98.988,116.696 98.988,116.696 C98.988,116.696 99.528,117.018 99.528,117.018 C99.528,117.018 99.851,117.559 99.851,117.559 C99.851,117.559 100.068,117.341 100.068,117.341 Z" id="path-1" class="cls-3" fill-rule="evenodd"/>
    <path d="M216.859,108.430 C216.859,168.320 168.310,216.869 108.422,216.869 C48.534,216.869 -0.015,168.320 -0.015,108.430 C-0.015,48.540 48.534,-0.010 108.422,-0.010 C168.310,-0.010 216.859,48.540 216.859,108.430 Z" id="path-2" class="cls-4" fill-rule="evenodd"/>
    <path d="M186.372,108.430 C186.372,151.482 151.473,186.381 108.422,186.381 C65.371,186.381 30.472,151.482 30.472,108.430 C30.472,65.378 65.371,30.478 108.422,30.478 C151.473,30.478 186.372,65.378 186.372,108.430 Z" id="path-3" class="cls-5" fill-rule="evenodd"/>
    <path d="M108.422,30.478 C95.141,30.478 82.647,33.818 71.702,39.676 C71.691,39.682 71.680,39.687 71.669,39.694 C80.465,36.254 90.039,34.364 100.055,34.364 C143.105,34.364 178.004,69.262 178.004,112.315 C178.004,140.348 163.203,164.923 140.991,178.658 C143.605,177.636 146.122,176.432 148.589,175.144 C171.201,161.497 186.372,136.767 186.372,108.429 C186.372,65.379 151.473,30.478 108.422,30.478 Z" id="path-4" class="cls-6" fill-rule="evenodd"/>
    <path d="M55.642,56.499 C55.642,56.499 163.734,164.594 163.734,164.594 C163.734,164.594 131.536,87.548 131.536,87.548 C131.536,87.548 55.642,56.499 55.642,56.499 Z" id="path-5" class="cls-6" fill-rule="evenodd"/>
    <path d="M95.407,120.583 C95.407,120.583 157.866,157.874 157.866,157.874 C157.866,157.874 120.575,95.414 120.575,95.414 C120.575,95.414 95.407,120.583 95.407,120.583 Z" id="path-6" class="cls-8" fill-rule="evenodd"/>
    <path d="M96.269,121.447 C96.269,121.447 58.978,58.985 58.978,58.985 C58.978,58.985 121.438,96.277 121.438,96.277 C121.438,96.277 96.269,121.447 96.269,121.447 Z" id="path-7" class="cls-9" fill-rule="evenodd"/>
  </g>
</svg>
